Infinity-Icons/Infinity-Dark-Icons/actions/16/gtk-close.svg

<?xml version="1.0" encoding="UTF-8" standalone="no"?>
<svg
   xmlns:dc="http://purl.org/dc/elements/1.1/"
   xmlns:cc="http://creativecommons.org/ns#"
   xmlns:rdf="http://www.w3.org/1999/02/22-rdf-syntax-ns#"
   xmlns:svg="http://www.w3.org/2000/svg"
   xmlns="http://www.w3.org/2000/svg"
   xmlns:sodipodi="http://sodipodi.sourceforge.net/DTD/sodipodi-0.dtd"
   xmlns:inkscape="http://www.inkscape.org/namespaces/inkscape"
   viewBox="0 0 24 24"
   width="24"
   height="24"
   version="1.1"
   id="svg7"
   sodipodi:docname="gtk-close.svg"
   inkscape:version="1.0.2 (e86c870879, 2021-01-15)">
  <metadata
     id="metadata13">
    <rdf:RDF>
      <cc:Work
         rdf:about="">
        <dc:format>image/svg+xml</dc:format>
        <dc:type
           rdf:resource="http://purl.org/dc/dcmitype/StillImage" />
        <dc:title></dc:title>
      </cc:Work>
    </rdf:RDF>
  </metadata>
  <defs
     id="defs11" />
  <sodipodi:namedview
     pagecolor="#ffffff"
     bordercolor="#666666"
     borderopacity="1"
     objecttolerance="10"
     gridtolerance="10"
     guidetolerance="10"
     inkscape:pageopacity="0"
     inkscape:pageshadow="2"
     inkscape:window-width="1920"
     inkscape:window-height="1007"
     id="namedview9"
     showgrid="false"
     inkscape:zoom="26.166667"
     inkscape:cx="12"
     inkscape:cy="12"
     inkscape:window-x="0"
     inkscape:window-y="0"
     inkscape:window-maximized="1"
     inkscape:current-layer="svg7" />
  <style
     type="text/css"
     id="current-color-scheme">
        .ColorScheme-NegativeText {
            color:#da4453;
        }
    </style>
  <g
     transform="matrix(2,0,0,2,-4,-4)"
     id="g9"
     style="fill:#e6e6e6">
    <path
       style="fill:#e6e6e6"
       class="ColorScheme-Text"
       d="M 5,4 C 4.4477,4 4,4.4477 4,5 4,5.2652 4.1055,5.5195 4.293,5.707 l 6,6 C 10.48,11.895 10.735,12 11,12 c 0.552,0 1,-0.448 1,-1 0,-0.265 -0.105,-0.52 -0.293,-0.707 l -6,-6 C 5.5195,4.1055 5.2652,4 5,4 Z"
       id="path5" />
    <path
       style="fill:#e6e6e6"
       class="ColorScheme-Text"
       d="M 5,12 C 4.4477,12 4,11.552 4,11 4,10.735 4.1055,10.48 4.293,10.293 l 6,-6 C 10.48,4.105 10.735,4 11,4 c 0.552,0 1,0.448 1,1 0,0.265 -0.105,0.52 -0.293,0.707 l -6,6 C 5.5195,11.895 5.2652,12 5,12 Z"
       id="path7" />
  </g>
</svg>

<svg xmlns="http://www.w3.org/2000/svg" width="16" height="16" version="1.1">
 <defs>
  <style id="current-color-scheme" type="text/css">
   .ColorScheme-Text { color:#dfdfdf; } .ColorScheme-Highlight { color:#4285f4; }
  </style>
 </defs>
 <path style="fill:currentColor" class="ColorScheme-Text" d="M 5,4 C 4.4477,4 4,4.4477 4,5 4,5.2652 4.1055,5.5195 4.293,5.707 L 10.293,11.707 C 10.48,11.895 10.735,12 11,12 11.552,12 12,11.552 12,11 12,10.735 11.895,10.48 11.707,10.293 L 5.707,4.293 C 5.5195,4.1055 5.2652,4 5,4 Z"/>
 <path style="fill:currentColor" class="ColorScheme-Text" d="M 5,12 C 4.4477,12 4,11.552 4,11 4,10.735 4.1055,10.48 4.293,10.293 L 10.293,4.293 C 10.48,4.105 10.735,4 11,4 11.552,4 12,4.448 12,5 12,5.265 11.895,5.52 11.707,5.707 L 5.707,11.707 C 5.5195,11.895 5.2652,12 5,12 Z"/>
</svg>
